src/icons/solid/communication/message-reply.svg

<svg width="24" height="24" viewBox="0 0 24 24" fill="none" xmlns="http://www.w3.org/2000/svg">
<g clip-path="url(#clip0_6287_1386)">
<path d="M19.62 10.6829C16.62 7.98558 12.49 7.80373 10.76 7.86435C10.6938 7.86224 10.6302 7.83729 10.58 7.79363C10.5316 7.74536 10.503 7.68042 10.5 7.61179V5.00536C10.4995 4.81495 10.4457 4.62856 10.3448 4.46769C10.244 4.30682 10.1002 4.17802 9.93 4.09614C9.75694 4.01387 9.56415 3.98347 9.37449 4.00854C9.18484 4.03361 9.00629 4.1131 8.86 4.23758L1.36 10.6728C1.24712 10.7678 1.15634 10.8868 1.09412 11.0212C1.0319 11.1556 0.999763 11.3023 1 11.4507C0.999992 11.5966 1.03127 11.7408 1.09169 11.8734C1.15211 12.0059 1.24024 12.1236 1.35 12.2185L8.86 18.9164C9.00613 19.0394 9.18395 19.1177 9.37258 19.1422C9.56121 19.1666 9.75285 19.1363 9.925 19.0546C10.0972 18.973 10.2427 18.8434 10.3445 18.6811C10.4464 18.5189 10.5003 18.3306 10.5 18.1385V15.0472C10.5007 14.9886 10.5207 14.9319 10.557 14.8861C10.5932 14.8403 10.6436 14.8081 10.7 14.7946C12.61 14.3905 18.83 13.6328 22.06 19.7347C22.1125 19.8331 22.1959 19.9111 22.2971 19.9565C22.3982 20.0019 22.5114 20.0121 22.6189 19.9855C22.7264 19.959 22.8221 19.8971 22.8911 19.8097C22.9601 19.7222 22.9984 19.6141 23 19.5023C23 15.6735 21.86 12.6933 19.62 10.6829Z" fill="#3C3B44"/>
</g>
<defs>
<clipPath id="clip0_6287_1386">
<rect width="24" height="24" fill="white"/>
</clipPath>
</defs>
</svg>

<svg xmlns="http://www.w3.org/2000/svg" width="24" height="24" fill="none" viewBox="0 0 24 24"><g clip-path="url(#a)"><path fill="currentColor" d="M19.62 10.683c-3-2.697-7.13-2.88-8.86-2.819a.3.3 0 0 1-.18-.07.27.27 0 0 1-.08-.182V5.005a1.02 1.02 0 0 0-.57-.909.99.99 0 0 0-1.07.142l-7.5 6.435a1.01 1.01 0 0 0-.36.778 1.02 1.02 0 0 0 .35.768l7.51 6.697a.995.995 0 0 0 1.485-.235c.101-.162.155-.35.155-.543v-3.09a.264.264 0 0 1 .2-.253c1.91-.405 8.13-1.162 11.36 4.94a.5.5 0 0 0 .559.25.5.5 0 0 0 .381-.483c0-3.828-1.14-6.809-3.38-8.82"/></g><defs><clipPath id="a"><path fill="currentColor" d="M0 0h24v24H0z"/></clipPath></defs></svg>
